svg/black/hsr.svg

<svg xmlns="http://www.w3.org/2000/svg" width="32" height="32" viewBox="0 0 32 32">
  <path d="M16,32 C7.163444,32 0,24.836556 0,16 C0,7.163444 7.163444,0 16,0 C24.836556,0 32,7.163444 32,16 C32,24.836556 24.836556,32 16,32 Z M10.7493987,7.5 C11.3028115,8.3166862 11.5712129,9.25666667 11.5646128,10.2400326 C10.4610873,10.2499935 9.35767179,10.2499935 8.25414627,10.2499935 C7.1804309,12.1700195 6.05710529,14.0666927 5,15.9966797 L5,16 C6.05380527,17.9333073 7.17383087,19.8299805 8.25414627,21.7497852 L11.2131611,21.7497852 L11.2131611,19.4366341 L10.2451562,19.4366341 C9.58933295,18.2922331 8.93666302,17.1466884 8.28714644,16 C8.93790969,14.855599 9.58962628,13.7100543 10.2422962,12.5633659 L18.1092055,12.5633659 L18.1092055,14.8333529 L14.3414667,14.8333529 L14.3414667,12.8533398 L11.5012525,12.8533398 C11.4913525,16.0696159 11.5243526,19.2866667 11.4913525,22.4999544 C11.593983,23.4433659 10.6131081,23.8566341 10.1260256,24.5 L15.7232936,24.5 C14.8583593,23.8032878 14.1127756,22.97 14.2685363,21.7599674 C17.5856029,21.7400456 20.8993695,21.7566471 24.2131361,21.7500065 C25.0481502,20.3167383 25.7176136,18.7434635 27,17.6366927 C25.7044135,17.4633724 24.395407,17.5332096 23.0931105,17.5000065 C22.8679393,18.167168 22.5862279,18.8099805 22.2681063,19.4399544 C21.8340442,19.4366341 21.399872,19.4366341 20.9691098,19.4366341 C20.9790099,16.1133333 20.9524998,12.7866016 20.9724099,9.46330078 C20.9226896,8.71999349 21.4363922,8.13329427 21.7379037,7.5 L17.3538318,7.5 C17.9205546,8.31004557 18.1856559,9.25334635 18.1690458,10.2400326 C16.8733494,10.2533138 15.5743529,10.2533138 14.2786564,10.2400326 C14.2586363,9.24670573 14.5800579,8.33007812 15.1036605,7.5 L10.7493987,7.5 Z M14.3415767,17.1666471 L18.1093155,17.1666471 L18.1093155,19.4366341 L14.3415767,19.4366341 L14.3415767,17.1666471 Z M21.2573113,10.2499935 L21.2568713,12.5633659 C21.5020625,12.5633659 21.992555,12.5600456 22.2410462,12.5600456 C22.5889779,13.169987 22.9037995,13.8067122 23.0628603,14.4999935 C24.3192866,14.4370182 25.5813229,14.5637435 26.8272991,14.4003841 C26.803869,14.3237956 26.7610788,14.1671875 26.7378687,14.0904883 C25.5714229,13.0501237 25.0147101,11.5500065 24.206096,10.2499935 L21.2573113,10.2499935 Z M18.2119461,22.0399805 C18.2848764,23.1633529 17.4398522,23.8138021 16.7174786,24.5 L22.3543468,24.5 C21.5889629,23.8400326 20.8100491,23.1499609 20.8299591,22.0366602 C19.9583148,22.0399805 19.0834804,22.0433008 18.2119461,22.0399805 Z"/>
</svg>

<svg xmlns="http://www.w3.org/2000/svg" width="32" height="32"><path d="M16 32C7.163 32 0 24.837 0 16S7.163 0 16 0s16 7.163 16 16-7.163 16-16 16zM10.75 7.5c.553.817.821 1.757.815 2.74-1.104.01-2.207.01-3.31.01C7.18 12.17 6.056 14.067 5 15.997V16c1.054 1.933 2.174 3.83 3.254 5.75h2.96v-2.313h-.969A788.677 788.677 0 0 1 8.287 16l1.955-3.437h7.867v2.27h-3.768v-1.98h-2.84c-.01 3.217.023 6.434-.01 9.647.103.943-.878 1.357-1.365 2h5.597c-.865-.697-1.61-1.53-1.454-2.74 3.317-.02 6.63-.003 9.944-.01.835-1.433 1.505-3.007 2.787-4.113-1.296-.174-2.605-.104-3.907-.137-.225.667-.507 1.31-.825 1.94-.434-.003-.868-.003-1.299-.003.01-3.324-.017-6.65.003-9.974-.05-.743.464-1.33.766-1.963h-4.384c.567.81.832 1.753.815 2.74-1.296.013-2.595.013-3.89 0-.02-.993.301-1.91.825-2.74h-4.355zm3.592 9.667h3.767v2.27h-3.767v-2.27zm6.915-6.917v2.313l.984-.003c.348.61.663 1.247.822 1.94 1.256-.063 2.518.064 3.764-.1-.023-.076-.066-.233-.09-.31-1.166-1.04-1.722-2.54-2.53-3.84h-2.95zm-3.045 11.79c.073 1.123-.772 1.774-1.495 2.46h5.637c-.765-.66-1.544-1.35-1.524-2.463-.872.003-1.747.006-2.618.003z"/></svg>
